gtk-icons/Papirus-GTK/24x24/actions/office-chart-area-stacked.svg

<?xml version="1.0" encoding="UTF-8" standalone="no"?>
<!-- Created with Inkscape (http://www.inkscape.org/) -->

<svg
   xmlns:dc="http://purl.org/dc/elements/1.1/"
   xmlns:cc="http://creativecommons.org/ns#"
   xmlns:rdf="http://www.w3.org/1999/02/22-rdf-syntax-ns#"
   xmlns:svg="http://www.w3.org/2000/svg"
   xmlns="http://www.w3.org/2000/svg"
   xmlns:sodipodi="http://sodipodi.sourceforge.net/DTD/sodipodi-0.dtd"
   xmlns:inkscape="http://www.inkscape.org/namespaces/inkscape"
   width="24"
   height="24"
   id="svg3049"
   version="1.1"
   inkscape:version="0.91 r13725"
   sodipodi:docname="office-chart-area-stacked.svg"
   inkscape:export-filename="/home/uri/.kde/share/icons/NITRUX-KDE/16x16/actions/view-right-new.png"
   inkscape:export-xdpi="30"
   inkscape:export-ydpi="30">
  <defs
     id="defs3051">
    <style
       type="text/css"
       id="current-color-scheme">
      .ColorScheme-Text {
        color:#4d4d4d;
      }
      .ColorScheme-Background {
        color:#eff0f1;
      }
      .ColorScheme-Highlight {
        color:#3daee9;
      }
      .ColorScheme-ViewText {
        color:#31363b;
      }
      .ColorScheme-ViewBackground {
        color:#fcfcfc;
      }
      .ColorScheme-ViewHover {
        color:#93cee9;
      }
      .ColorScheme-ViewFocus{
        color:#3daee9;
      }
      .ColorScheme-ButtonText {
        color:#31363b;
      }
      .ColorScheme-ButtonBackground {
        color:#eff0f1;
      }
      .ColorScheme-ButtonHover {
        color:#93cee9;
      }
      .ColorScheme-ButtonFocus{
        color:#3daee9;
      }
      </style>
  </defs>
  <sodipodi:namedview
     id="base"
     pagecolor="#ffffff"
     bordercolor="#666666"
     borderopacity="1.0"
     inkscape:pageopacity="0.0"
     inkscape:pageshadow="2"
     inkscape:zoom="17.16"
     inkscape:cx="6.01786"
     inkscape:cy="6.4153699"
     inkscape:document-units="px"
     inkscape:current-layer="layer1"
     showgrid="false"
     fit-margin-top="0"
     fit-margin-left="0"
     fit-margin-right="0"
     fit-margin-bottom="0"
     inkscape:window-width="1535"
     inkscape:window-height="839"
     inkscape:window-x="55"
     inkscape:window-y="30"
     inkscape:window-maximized="0"
     inkscape:showpageshadow="false"
     borderlayer="true"
     inkscape:snap-bbox="false"
     inkscape:snap-global="true"
     inkscape:object-nodes="false"
     showguides="false"
     inkscape:guide-bbox="true"
     inkscape:bbox-paths="false"
     inkscape:bbox-nodes="false"
     inkscape:snap-bbox-edge-midpoints="false"
     inkscape:snap-bbox-midpoints="false"
     inkscape:snap-intersection-paths="false"
     inkscape:snap-nodes="false"
     inkscape:object-paths="false">
    <inkscape:grid
       type="xygrid"
       id="grid4085" />
    <sodipodi:guide
       position="2.0000044,14.00003"
       orientation="12,0"
       id="guide4075" />
    <sodipodi:guide
       position="14.000004,2.0000296"
       orientation="-12,0"
       id="guide4079" />
    <sodipodi:guide
       position="14.000004,14.00003"
       orientation="0,-12"
       id="guide4081" />
    <sodipodi:guide
       position="8,2"
       orientation="0,1"
       id="guide4178" />
  </sodipodi:namedview>
  <metadata
     id="metadata3054">
    <rdf:RDF>
      <cc:Work
         rdf:about="">
        <dc:format>image/svg+xml</dc:format>
        <dc:type
           rdf:resource="http://purl.org/dc/dcmitype/StillImage" />
        <dc:title></dc:title>
      </cc:Work>
    </rdf:RDF>
  </metadata>
  <g
     inkscape:label="Capa 1"
     inkscape:groupmode="layer"
     id="layer1"
     transform="translate(-421.71429,-523.79074)">
    <g
       id="g4148"
       transform="translate(4,-4)">
      <path
         id="path4150"
         transform="translate(421.71429,531.79074)"
         d="M 13.955078,4.1757812 13.130859,5 l -2,2 -0.0039,-0.00391 L 11.121094,7 8.9980469,4.8769531 7.703125,6.171875 6.875,7 4.875,9 4.8730469,9 3,9 3,11 3.0078125,11 4,11 l 1.59375,0 2,-2 L 8.5996094,9 9.0078125,9 10,9 l 0.01367,0 2,2 L 14,11 14,4.2226562 13.955078,4.1757812 Z M 8.0078125,10 l -2,2 L 6,11.992188 6,12 4,12 3.0078125,12 3,12 l 0,1 11,0 0,-1 -2.400391,0 -1.9999996,-2 -1.5917969,0 z"
         style="opacity:0.3;fill:#000000;fill-opacity:1;fill-rule:evenodd;stroke:none;stroke-width:1px;stroke-linecap:butt;stroke-linejoin:miter;stroke-opacity:1"
         inkscape:connector-curvature="0" />
      <path
         id="rect4223"
         transform="translate(421.71429,531.79074)"
         d="m 2,2 0,11 0,1 1,0 11,0 0,-1 L 3,13 3,12 3.00781,12 4,12 6,12 6,11.9922 6.00781,12 l 2,-2 1.5917969,0 2.0000001,2 L 14,12 l 0,-1 -1.986328,0 -2,-2 L 10,9 9.0078125,9 8.5996094,9 7.59375,9 l -2,2 L 4,11 3.0078125,11 3,11 3,9 4.8730469,9 4.875,9 6.875,7 7.703125,6.171875 8.9980469,4.8769531 11.121094,7 11.126994,6.99609 11.130894,7 l 2,-2 0.828125,-0.828125 c 0.0031,0.00489 -0.707031,-0.7070312 -0.707031,-0.7070312 l -0.82816,0.828125 -1.296875,1.296875 L 9,3.4648438 8.99805,3.4667938 8.9961,3.4648438 C 8.0607958,4.3944006 6.15625,6.2812499 6.1679688,6.2929688 L 4.4609375,8 3,8 3,2 2,2 Z"
         style="opacity:0.5;fill:currentColor;fill-opacity:1;stroke:none"
         inkscape:connector-curvature="0" />
    </g>
  </g>
</svg>

<?xml version="1.0" encoding="UTF-8" standalone="no"?>
<!-- Created with Inkscape (http://www.inkscape.org/) -->
<svg id="svg3049" xmlns:rdf="http://www.w3.org/1999/02/22-rdf-syntax-ns#" xmlns="http://www.w3.org/2000/svg" height="24" width="24" version="1.1" xmlns:cc="http://creativecommons.org/ns#" xmlns:dc="http://purl.org/dc/elements/1.1/">
 <defs id="defs3051">
  <style id="current-color-scheme" type="text/css">.ColorScheme-Text {
        color:#4d4d4d;
      }
      .ColorScheme-Background {
        color:#eff0f1;
      }
      .ColorScheme-Highlight {
        color:#3daee9;
      }
      .ColorScheme-ViewText {
        color:#31363b;
      }
      .ColorScheme-ViewBackground {
        color:#fcfcfc;
      }
      .ColorScheme-ViewHover {
        color:#93cee9;
      }
      .ColorScheme-ViewFocus{
        color:#3daee9;
      }
      .ColorScheme-ButtonText {
        color:#31363b;
      }
      .ColorScheme-ButtonBackground {
        color:#eff0f1;
      }
      .ColorScheme-ButtonHover {
        color:#93cee9;
      }
      .ColorScheme-ButtonFocus{
        color:#3daee9;
      }</style>
 </defs>
 <metadata id="metadata3054">
  <rdf:RDF>
   <cc:Work rdf:about="">
    <dc:format>image/svg+xml</dc:format>
    <dc:type rdf:resource="http://purl.org/dc/dcmitype/StillImage"/>
    <dc:title/>
   </cc:Work>
  </rdf:RDF>
 </metadata>
 <g id="layer1" transform="translate(-421.71 -523.79)">
  <g id="g4148" transform="translate(4,-4)">
   <path id="path4150" opacity=".3" d="m13.955 4.1758-0.824 0.8242l-2 2-0.0039-0.00391-0.006 0.0039-2.123-2.123-1.2949 1.2949-0.8281 0.8281-2 2h-0.002-1.873v2h0.0078 0.9922 1.5938l2-2h1.0058 0.4082 0.9922 0.01367l2 2h1.986v-6.7773l-0.045-0.0469zm-5.9472 5.8242l-2 2-0.0078-0.008v0.008h-2-0.9922-0.0078v1h11v-1h-2.4004l-2-2h-1.5918z" fill-rule="evenodd" transform="translate(421.71 531.79)"/>
   <path id="rect4223" opacity=".5" d="m2 2v11 1h1 11v-1h-11v-1h0.0078 0.9922 2v-0.008l0.0078 0.008 2-2h1.5918l2 2h2.4v-1h-1.9863l-2-2h-0.014-0.9922-0.4082-1.0058l-2 2h-1.5938-0.9922-0.0078v-2h1.873 0.002l2-2 0.8281-0.8281 1.2949-1.2949 2.123 2.123 0.006-0.0039 0.004 0.0039 2-2 0.82812-0.82812c0.0031 0.00489-0.70703-0.70703-0.70703-0.70703l-0.82816 0.82812-1.2969 1.2969-2.127-2.1251-0.002 0.002-0.0019-0.002c-0.9353 0.9296-2.8399 2.8164-2.8281 2.8282l-1.7071 1.707h-1.4609v-6h-1z" transform="translate(421.71 531.79)" fill="currentColor"/>
  </g>
 </g>
</svg>
